!!!COM: Manuel de Falla (y Matheu)
!!!OTL: [T314_Fal-w7p12m159-167]
**kern	**kern	**dynam
*grp:A	*grp:B	*grp:B
*part1	*part1	*part1
*staff2	*staff1	*staff1/2
*I"Piano	*I"Piano	*
*I'Pno.	*I'Pno.	*
*clefF4	*clefG2	*
*k[]	*k[]	*
*C:	*C:	*
*M6/8	*M6/8	*
=160	=160	=160
!	!LO:TX:t=[[quarter]=88]	!
4AAA'^^< 4AA	16ryy	4ryy
.	16ryy	.
!	!	!LO:DY:ed=brack
.	8ryy	4ryy
8AAA^^< 8AA	8ryy	.
8BBB^^<L 8BB	16ryy	.
.	16ryy	.
8CC^^< 8C	16ryy	.
.	16ryy	.
8DD^^<J 8D	16ryy	.
.	16ryy	.
=161	=161	=161
8BBB^^<L 8BB	16ryy	.
.	16ryy	.
8CC^^< 8C	16ryy	.
.	16ryy	.
8DD^^<J 8D	16ryy	.
.	16ryy	.
8BBB^^<L 8BB	16ryy	.
.	16ryy	.
8CC^^< 8C	16ryy	.
.	16ryy	.
8DD^^<J 8D	16ryy	.
.	16ryy	.
=162	=162	=162
4AAA'^^< 4AA	16ryy	.
.	16ryy	.
.	8ryy	.
8AAA^^< 8AA	8ryy	.
8BBB^^<L 8BB	8ryy	.
8CC^^< 8C	8ryy	.
8DD^^<J 8D	8ryy	.
!!linebreak:original
=163	=163	=163
4AAA'^^< 4AA	16ryy	.
.	16ryy	.
.	8ryy	.
8AAA^^< 8AA	8ryy	.
8BBB^^<L 8BB	8ryy	.
8CC^^< 8C	8ryy	.
8DD^^<J 8D	8ryy	.
=164	=164	=164
!	!LO:TX:t=P:problem:Cross-bar beaming still needs to be implemented.	!
4AAA'^^< 4AA	16ryy	.
.	16ryy	.
.	8ryy	.
8AAA^^< 8AA	8ryy	.
8BBB^^<L 8BB	16ryy	.
.	16ryy	.
8CC^^< 8C	16ryy	.
.	16ryy	.
8DD^^<J 8D	16ryy	.
.	16ryy	.
=165	=165	=165
8BBB^^<L 8BB	16ryy	.
.	16ryy	.
8CC^^< 8C	16ryy	.
.	16ryy	.
8DD^^<J 8D	16ryy	.
.	16ryy	.
8BBB^^<L 8BB	16ryy	.
.	16ryy	.
8CC^^< 8C	16ryy	.
.	16ryy	.
8DD^^<J 8D	16ryy	.
.	16ryy	.
!!linebreak:original
=166	=166	=166
*M2/4	*M2/4	*
*	*8va	*
!	!LO:TX:a:t=([eighth] = [eighth])	!
.	16ryy	4ryy
.	16ryy	.
!LO:TX:b:t=Ped.	!LO:TUP:b	!
8EEE^^< 8EE	40ryy	.
.	40ryy	.
.	40ryy	.
.	40ryy	.
*	*X8va	*
!	!LO:TX:t=P:problem: Tuplet number should be below beams, not below bottom staff.	!
.	40ryy	.
*	*	*
*clefG2	*	*
8rb	40ryy	.
.	40ryy	.
.	40ryy	.
*	*	*
.	40ryy	.
.	40ryy	.
4ryy	8ryy	.
.	8rb<yy	.
.	.	.
*	*clefF4	*
=167	=167	=167
2ryy	32ryy	4ryy
.	32ryy	.
.	32ryy	.
.	32ryy	.
.	32ryy	.
!	!LO:TX:a:Bi:t=gliss.	!
!	!LO:TX:t=P:problem: Missing gliss line, and split in beams.	!
.	32ryy	.
.	32ryy	.
.	8.ryyyy	.
.	32ryyyy	.
*	*clefG2	*
.	32ryy	.
.	32ryy	4ryy
=168	=168	=168
32ggLLL<	8ryyyy	4ryy
32ff	.	.
32ee	.	.
32dd	.	.
32cc	16ryyyy	.
32b	.	.
!LO:TX:a:B:i:t=gliss.	!	!
!LO:TX:t=P:problem: Missing gliss line, and split in beams.	!	!
32a)JJ	32ryyyy	.
4ryy	4ryyyy	.
*clefF4	*	*
[32BBJk	32ryyyy	.
.	.	.
=	=	=
*-	*-	*-
!!!RDF**kern: i = editorial accidental, paren
!!!RDF**kern: < = below
!!!RDF**kern: > = above
!!!EED: Kelsey Lussier 
!!!EEV: 2021/08/06 
!!!EED2: Daniel Wright
!!!EEV2: 2022/01/28
